X: 3226
T: Beggarman's, The
R: reel
M: 4/4
K: Eminor
G2 BG dGBG|ABcA BE ~E2|Bdef gfed|Bded BEED|
(3GAG BG dGBG|ABcA BE ~E2|Bdef gfed|BdeB BE ~E2||
g3a bgeg|fgag fddf|g3a (3bag ef|gfed Beef|
g3a (3bag ef|fgag fddf|bgaf gfed|Bded BEED "_DC"||

